build/category/MegaphoneOutline.svg

<svg xmlns="http://www.w3.org/2000/svg" fill="none" viewBox="0 0 24 24" focusable="false"><path d="M0 0H24V24H0z"/><path fill="#74767B" fill-rule="evenodd" d="M12.8806 8.0059L11.763 8.0059L11.763 8.00366L7 8.00366C5.34315 8.00366 4 9.34681 4 11.0037L4 13.0037C4 14.535 5.14734 15.7983 6.62927 15.981L7.22423 19.1327C7.42867 20.2157 8.37484 21 9.47699 21C10.7431 21 11.7695 19.9736 11.7695 18.7074L11.7695 16.0147L12.8953 16.0147C14.5861 16.0147 16.0245 17.2471 16.2838 18.9179C16.3801 19.5385 16.9144 19.9962 17.5424 19.9962L18.7 19.9962C19.418 19.9962 20 19.4142 20 18.6962L20 5.30391C20 4.58594 19.418 4.00391 18.7 4.00391L17.5479 4.00391C16.9168 4.00391 16.3801 4.46413 16.2838 5.08778C16.0246 6.76683 14.5795 8.0059 12.8806 8.0059ZM17.5649 18.6962L18.7 18.6962L18.7 5.30391L17.5658 5.30391C17.2013 7.60779 15.2149 9.3059 12.8806 9.3059L11.774 9.3059L11.774 14.7147L12.8953 14.7147C15.2196 14.7147 17.198 16.4034 17.5649 18.6962ZM6.95925 14.7032L10.463 14.7032L10.463 9.30367L7 9.30367C6.06112 9.30367 5.3 10.0648 5.3 11.0037L5.3 13.0037C5.3 13.9289 6.03919 14.6815 6.95925 14.7032ZM8.02014 11.0001C7.46786 11.0001 7.02014 11.4502 7.02014 12.0001C7.02014 12.5499 7.46786 13.0001 8.02014 13.0001C8.57243 13.0001 9.02014 12.5499 9.02014 12.0001C9.02014 11.4502 8.57243 11.0001 8.02014 11.0001ZM8.50167 18.8916L7.95651 16.0037L10.4695 16.0037L10.4695 18.7074C10.4695 19.2556 10.0252 19.7 9.47699 19.7C8.99982 19.7 8.59018 19.3605 8.50167 18.8916Z"/></svg>

<svg xmlns="http://www.w3.org/2000/svg" fill="none" viewBox="0 0 24 24" focusable="false"><path fill="#74767B" fill-rule="evenodd" d="M12.88 8H7c-1.66 0-3 1.34-3 3v2c0 1.53 1.14 2.79 2.62 2.98l.6 3.15C7.42 20.21 8.37 21 9.47 21c1.27 0 2.29-1.03 2.29-2.3v-2.69h1.13a3.43 3.43 0 0 1 3.39 2.9c.09.62.63 1.08 1.26 1.08h1.16c.71 0 1.3-.58 1.3-1.3V5.3c0-.72-.59-1.3-1.3-1.3h-1.16c-.63 0-1.17.46-1.26 1.08A3.45 3.45 0 0 1 12.88 8m4.68 10.69h1.14V5.3h-1.14c-.36 2.3-2.35 4-4.68 4h-1.11v5.41h1.12c2.32 0 4.3 1.69 4.67 3.98M6.95 14.7h3.51V9.3H7c-.94 0-1.71.76-1.71 1.7v2c0 .92.74 1.68 1.66 1.7M8.02 11c-.56 0-1 .45-1 1 0 .54.44 1 1 1 .55 0 1-.46 1-1 0-.55-.45-1-1-1m.48 7.89L7.95 16h2.51v2.7c0 .55-.44 1-.99 1-.47 0-.88-.34-.97-.81"/></svg>
